Assets/Icons/interaction/bulletlist.svg

<svg enable-background="new 0 0 60 60" viewBox="0 0 60 60" xmlns="http://www.w3.org/2000/svg"><path d="m56.5 10.5h-40c-.28 0-.5.22-.5.5 0 1.38 1.12 2.5 2.5 2.5h38c.28 0 .5-.22.5-.5v-2c0-.28-.22-.5-.5-.5z"/><path d="m56.5 28.5h-40c-.28 0-.5.22-.5.5 0 1.38 1.12 2.5 2.5 2.5h38c.28 0 .5-.22.5-.5v-2c0-.28-.22-.5-.5-.5z"/><path d="m56.5 46.5h-40c-.28 0-.5.22-.5.5 0 1.38 1.12 2.5 2.5 2.5h38c.28 0 .5-.22.5-.5v-2c0-.28-.22-.5-.5-.5z"/><path d="m6.5 43.25c-2.62 0-4.75 2.13-4.75 4.75s2.13 4.75 4.75 4.75 4.75-2.13 4.75-4.75-2.13-4.75-4.75-4.75zm0 7c-1.24 0-2.25-1.01-2.25-2.25s1.01-2.25 2.25-2.25 2.25 1.01 2.25 2.25-1.01 2.25-2.25 2.25z"/><path d="m6.5 7.25c-2.62 0-4.75 2.13-4.75 4.75s2.13 4.75 4.75 4.75 4.75-2.13 4.75-4.75-2.13-4.75-4.75-4.75zm0 7c-1.24 0-2.25-1.01-2.25-2.25s1.01-2.25 2.25-2.25 2.25 1.01 2.25 2.25-1.01 2.25-2.25 2.25z"/><path d="m6.5 25.25c-2.62 0-4.75 2.13-4.75 4.75s2.13 4.75 4.75 4.75 4.75-2.13 4.75-4.75-2.13-4.75-4.75-4.75zm0 7c-1.24 0-2.25-1.01-2.25-2.25s1.01-2.25 2.25-2.25 2.25 1.01 2.25 2.25-1.01 2.25-2.25 2.25z"/></svg>

<?xml version="1.0" encoding="utf-8"?>
<!-- Generator: Adobe Illustrator 21.1.0, SVG Export Plug-In . SVG Version: 6.00 Build 0)  -->
<svg version="1.1" id="EPS" xmlns="http://www.w3.org/2000/svg" xmlns:xlink="http://www.w3.org/1999/xlink" x="0px" y="0px"
	 viewBox="0 0 60 60" style="enable-background:new 0 0 60 60;" xml:space="preserve">
<g>
	<path d="M56.5,10.5h-40c-0.28,0-0.5,0.22-0.5,0.5c0,1.38,1.12,2.5,2.5,2.5h38c0.28,0,0.5-0.22,0.5-0.5v-2
		C57,10.72,56.78,10.5,56.5,10.5z"/>
	<path d="M56.5,28.5h-40c-0.28,0-0.5,0.22-0.5,0.5c0,1.38,1.12,2.5,2.5,2.5h38c0.28,0,0.5-0.22,0.5-0.5v-2
		C57,28.72,56.78,28.5,56.5,28.5z"/>
	<path d="M56.5,46.5h-40c-0.28,0-0.5,0.22-0.5,0.5c0,1.38,1.12,2.5,2.5,2.5h38c0.28,0,0.5-0.22,0.5-0.5v-2
		C57,46.72,56.78,46.5,56.5,46.5z"/>
	<path d="M6.5,43.25c-2.62,0-4.75,2.13-4.75,4.75s2.13,4.75,4.75,4.75s4.75-2.13,4.75-4.75S9.12,43.25,6.5,43.25z M6.5,50.25
		c-1.24,0-2.25-1.01-2.25-2.25s1.01-2.25,2.25-2.25S8.75,46.76,8.75,48S7.74,50.25,6.5,50.25z"/>
	<path d="M6.5,7.25c-2.62,0-4.75,2.13-4.75,4.75s2.13,4.75,4.75,4.75s4.75-2.13,4.75-4.75S9.12,7.25,6.5,7.25z M6.5,14.25
		c-1.24,0-2.25-1.01-2.25-2.25S5.26,9.75,6.5,9.75S8.75,10.76,8.75,12S7.74,14.25,6.5,14.25z"/>
	<path d="M6.5,25.25c-2.62,0-4.75,2.13-4.75,4.75s2.13,4.75,4.75,4.75s4.75-2.13,4.75-4.75S9.12,25.25,6.5,25.25z M6.5,32.25
		c-1.24,0-2.25-1.01-2.25-2.25s1.01-2.25,2.25-2.25S8.75,28.76,8.75,30S7.74,32.25,6.5,32.25z"/>
</g>
</svg>
